X:1
T:F Major Oliver Holden, 1800
T:Isaac Watts, 1709 (Hymn 7, Book 1) 86. 86 (C. M.)
T:Kamalia No copyright. Transcribed from Plain Psalmody, 1800.
%%score [ 1 2 3 4 ]
L:1/8
M:4/4
K:F
V:1 treble nm="Treble" snm="Tr."
V:2 treble nm="Counter" snm="C."
V:3 treble-8 nm="Tenor" snm="T."
V:4 bass nm="Bass" snm="B."
V:1
 c4 | d2 c2 B2 A2 | G3 G G2 A2 | c3 d A2 G2 | !fermata!F4 c4 | d2 e2 f2 c2 | B4 A4 | G6 G2 | %8
 (A2 B2 c2) f2 | A4 G4 | F8 |] %11
V:2
 F4 | F2 F2 F2 F2 | E3 E E2 F2 | G3 F F2 E2 | !fermata!F4 F4 | F2 G2 A2 A2 | G4 F4 | E6 E2 | %8
w: 1.~E-|ter- nal wis- dom|has pre- pared A|soul- re- vi- ving|feast; And|bids your long- ing|ap- pe-|tites The|
 F4 F4 | F4 E4 | F8 |] %11
w: rich pro-|vi- sion|taste.|
V:3
 A4 | B2 A2 d2 c2 | c3 c c2 c2 | e3 d c2 c2 | !fermata!c4 A4 | B2 B2 c2 f2 | e4 c4 | c6 c2 | %8
 (c2 f2 c2) d2 | c4 B4 | A8 |] %11
V:4
 F,4 | F,2 F,2 F,2 F,2 | C,3 C, C,2 F,2 | E,3 F, F,2 C,2 | !fermata!F,4 F,4 | F,2 C,2 F,2 F,2 | %6
 E,4 F,4 | C,6 C,2 | F,4 A,4 | C4 C,4 | F,8 |] %11

